<?xml version="1.0" encoding="UTF-8"?>
<map version="1.10" tiledversion="1.12.2" orientation="orthogonal" renderorder="right-down" width="40" height="30" tilewidth="16" tileheight="16" infinite="0" nextlayerid="6" nextobjectid="1">
 <editorsettings>
  <export target="../../SideScroller/assets/scripts/defs/maps/level1.lua" format="lua"/>
 </editorsettings>
 <tileset firstgid="1" name="tileset1" tilewidth="16" tileheight="16" tilecount="272" columns="17">
  <image source="../../assets/textures/tilesets/tileset1.png" width="272" height="256"/>
  <tile id="7">
   <objectgroup draworder="index" id="2">
    <object id="1" name="platform" x="0" y="0" width="16" height="16"/>
   </objectgroup>
  </tile>
  <tile id="8">
   <objectgroup draworder="index" id="2">
    <object id="1" name="platform" x="0" y="0" width="16" height="16"/>
   </objectgroup>
  </tile>
  <tile id="9">
   <objectgroup draworder="index" id="2">
    <object id="1" name="platform" x="0" y="0" width="16" height="16"/>
   </objectgroup>
  </tile>
  <tile id="10">
   <objectgroup draworder="index" id="2">
    <object id="1" name="platform" x="0" y="0" width="16" height="16"/>
   </objectgroup>
  </tile>
  <tile id="11">
   <objectgroup draworder="index" id="2">
    <object id="1" name="platform" x="0" y="0" width="16" height="16"/>
   </objectgroup>
  </tile>
  <tile id="12">
   <objectgroup draworder="index" id="2">
    <object id="1" name="platform" x="0" y="0" width="16" height="16"/>
   </objectgroup>
  </tile>
  <tile id="25">
   <objectgroup draworder="index" id="2">
    <object id="1" name="platform" x="0" y="0" width="16" height="16"/>
   </objectgroup>
  </tile>
  <tile id="26">
   <objectgroup draworder="index" id="2">
    <object id="1" name="platform" x="0" y="0" width="16" height="16"/>
   </objectgroup>
  </tile>
  <tile id="27">
   <objectgroup draworder="index" id="2">
    <object id="1" name="platform" x="0" y="0" width="16" height="16"/>
   </objectgroup>
  </tile>
  <tile id="29">
   <objectgroup draworder="index" id="2">
    <object id="1" name="platform" x="0" y="0" width="16" height="16"/>
   </objectgroup>
  </tile>
  <tile id="41">
   <objectgroup draworder="index" id="2">
    <object id="1" name="platform" x="0" y="0" width="16" height="16"/>
   </objectgroup>
  </tile>
  <tile id="42">
   <objectgroup draworder="index" id="2">
    <object id="1" name="platform" x="0" y="0" width="16" height="16"/>
   </objectgroup>
  </tile>
  <tile id="43">
   <objectgroup draworder="index" id="2">
    <object id="1" name="platform" x="0" y="0" width="16" height="16"/>
   </objectgroup>
  </tile>
  <tile id="44">
   <objectgroup draworder="index" id="2">
    <object id="1" name="platform" x="0" y="0" width="16" height="16"/>
   </objectgroup>
  </tile>
  <tile id="45">
   <objectgroup draworder="index" id="2">
    <object id="1" name="platform" x="0" y="0" width="16" height="16"/>
   </objectgroup>
  </tile>
  <tile id="46">
   <objectgroup draworder="index" id="2">
    <object id="1" name="platform" x="0" y="0" width="16" height="16"/>
    <object id="2" name="platform" x="0" y="0" width="16" height="16"/>
   </objectgroup>
  </tile>
  <tile id="47">
   <objectgroup draworder="index" id="2">
    <object id="1" name="platform" x="0" y="0" width="16" height="16"/>
   </objectgroup>
  </tile>
  <tile id="59">
   <objectgroup draworder="index" id="2">
    <object id="1" name="platform" x="0" y="0" width="16" height="16"/>
   </objectgroup>
  </tile>
  <tile id="60">
   <objectgroup draworder="index" id="2">
    <object id="1" name="platform" x="0" y="0" width="16" height="16"/>
   </objectgroup>
  </tile>
  <tile id="63">
   <objectgroup draworder="index" id="2">
    <object id="1" name="platform" x="0" y="0" width="16" height="16"/>
   </objectgroup>
  </tile>
  <tile id="75">
   <objectgroup draworder="index" id="2">
    <object id="4" name="ladder" type="ladder" x="2" y="0" width="12" height="16"/>
   </objectgroup>
  </tile>
  <tile id="92">
   <objectgroup draworder="index" id="2">
    <object id="4" name="ladder" type="ladder" x="2" y="0" width="12" height="16"/>
   </objectgroup>
  </tile>
  <tile id="109">
   <objectgroup draworder="index" id="2">
    <object id="3" name="ladder" type="ladder" x="2" y="0" width="12" height="16"/>
   </objectgroup>
  </tile>
  <tile id="143">
   <objectgroup draworder="index" id="2">
    <object id="1" name="platform" type="pass-through" x="-0.0283537" y="0" width="16" height="16"/>
   </objectgroup>
  </tile>
  <tile id="144">
   <objectgroup draworder="index" id="2">
    <object id="1" name="platform" type="pass-through" x="0" y="0" width="16" height="16"/>
   </objectgroup>
  </tile>
  <tile id="145">
   <objectgroup draworder="index" id="2">
    <object id="1" name="platform" type="pass-through" x="0" y="0" width="16" height="16"/>
   </objectgroup>
  </tile>
  <tile id="146">
   <objectgroup draworder="index" id="2">
    <object id="1" name="platform" type="pass-through" x="0" y="0" width="16" height="16"/>
   </objectgroup>
  </tile>
  <tile id="147">
   <objectgroup draworder="index" id="2">
    <object id="1" name="platform" type="pass-through" x="0" y="0" width="16" height="16"/>
   </objectgroup>
  </tile>
  <tile id="148">
   <objectgroup draworder="index" id="2">
    <object id="1" name="platform" type="pass-through" x="0" y="0" width="16" height="16"/>
   </objectgroup>
  </tile>
  <tile id="149">
   <objectgroup draworder="index" id="2">
    <object id="1" name="platform" type="pass-through" x="0" y="0" width="16" height="16"/>
   </objectgroup>
  </tile>
 </tileset>
 <layer id="1" name="background1" width="40" height="30">
  <data encoding="csv">
130,130,130,130,130,130,130,130,130,130,130,130,130,130,130,130,130,130,130,130,130,130,130,130,130,130,130,130,130,130,130,130,130,130,130,130,130,130,130,130,
130,130,130,130,130,130,130,130,130,130,130,130,130,130,130,130,130,130,130,130,130,130,130,130,130,130,130,130,130,130,130,130,130,130,130,130,130,130,130,130,
130,130,130,130,130,130,130,130,130,130,130,130,130,130,130,130,130,130,130,130,130,130,130,130,130,130,130,130,130,130,130,130,130,130,130,130,130,130,130,130,
130,130,130,130,130,130,130,130,130,130,130,130,130,130,130,130,130,130,130,130,130,130,130,130,130,130,130,130,130,130,130,130,130,130,130,130,130,130,130,130,
130,130,130,130,130,130,130,130,130,130,130,130,130,130,130,130,130,130,130,130,130,130,130,130,130,130,130,130,130,130,130,130,130,130,130,130,130,130,130,130,
130,130,130,130,130,130,130,130,130,130,130,130,130,130,130,130,130,130,130,130,130,130,130,130,130,130,130,130,130,130,130,130,130,130,130,130,130,130,130,130,
130,130,130,130,130,130,130,130,130,130,130,130,130,130,130,130,130,130,130,130,130,130,130,130,130,130,130,130,130,130,130,130,130,130,130,130,130,130,130,130,
130,130,130,130,130,130,130,130,130,130,130,130,130,130,130,130,130,130,130,130,130,130,130,130,130,130,130,130,130,130,130,130,130,130,130,130,130,130,130,130,
130,130,130,130,130,130,130,130,130,130,130,130,130,130,130,130,130,130,130,130,130,130,130,130,130,130,130,130,130,130,130,130,130,130,130,130,130,130,130,130,
130,130,130,130,130,130,130,130,130,130,130,130,130,130,130,130,130,130,130,130,130,130,130,130,130,130,130,130,130,130,130,130,130,130,130,130,130,130,130,130,
130,130,130,130,130,130,130,130,130,130,130,130,130,130,130,130,130,130,130,130,130,130,130,130,130,130,130,130,130,130,130,130,130,130,130,130,130,130,130,130,
130,130,130,130,130,130,130,130,130,130,130,130,130,130,130,130,130,130,130,130,130,130,130,130,130,130,130,130,130,130,130,130,130,130,130,130,130,130,130,130,
130,130,130,130,130,130,130,130,130,130,130,130,130,130,130,130,130,130,130,130,130,130,130,130,130,130,130,130,130,130,130,130,130,130,130,130,130,130,130,130,
130,130,130,130,130,130,130,130,130,130,130,130,130,130,130,130,130,130,130,130,130,130,130,130,130,130,130,130,130,130,130,130,130,130,130,130,130,130,130,130,
130,130,130,130,130,130,130,130,130,130,130,130,130,130,130,130,130,130,130,130,130,130,130,130,130,130,130,130,130,130,130,130,130,130,130,130,130,130,130,130,
130,130,130,130,130,130,130,130,130,130,130,130,130,130,130,130,130,130,130,130,130,130,130,130,130,130,130,130,130,130,130,130,130,130,130,130,130,130,130,130,
130,130,130,130,130,130,130,130,130,130,130,130,130,130,130,130,130,130,130,130,130,130,130,130,130,130,130,130,130,130,130,130,130,130,130,130,130,130,130,130,
130,130,130,130,130,130,130,130,130,130,130,130,130,130,130,130,130,130,130,130,130,130,130,130,130,130,130,130,130,130,130,130,130,130,130,130,130,130,130,130,
130,130,130,130,130,130,130,130,130,130,130,130,130,130,130,130,130,130,130,130,130,130,130,130,130,130,130,130,130,130,130,130,130,130,130,130,130,130,130,130,
130,130,130,130,130,130,130,130,130,130,130,130,130,130,130,130,130,130,130,130,130,130,130,130,130,130,130,130,130,130,130,130,130,130,130,130,130,130,130,130,
130,130,130,130,130,130,130,130,130,130,130,130,130,130,130,130,130,130,130,130,130,130,130,130,130,130,130,130,130,130,130,130,130,130,130,130,130,130,130,130,
130,130,130,130,130,130,130,130,130,130,130,130,130,130,130,130,130,130,130,130,130,130,130,130,130,130,130,130,130,130,130,130,130,130,130,130,130,130,130,130,
130,130,130,130,130,130,130,130,130,130,130,130,130,130,130,130,130,130,130,130,130,130,130,130,130,130,130,130,130,130,130,130,130,130,130,130,130,130,130,130,
130,130,130,130,130,130,130,130,130,130,130,130,130,130,130,130,130,130,130,130,130,130,130,130,130,130,130,130,130,130,130,130,130,130,130,130,130,130,130,130,
130,130,130,130,130,130,130,130,130,130,130,130,130,130,130,130,130,130,130,130,130,130,130,130,130,130,130,130,130,130,130,130,130,130,130,130,130,130,130,130,
130,130,130,130,130,130,130,130,130,130,130,130,130,130,130,130,130,130,130,130,130,130,130,130,130,130,130,130,130,130,130,130,130,130,130,130,130,130,130,130,
130,130,130,130,130,130,130,130,130,130,130,130,130,130,130,130,130,130,130,130,130,130,130,130,130,130,130,130,130,130,130,130,130,130,130,130,130,130,130,130,
130,130,130,130,130,130,130,130,130,130,130,130,130,130,130,130,130,130,130,130,130,130,130,130,130,130,130,130,130,130,130,130,130,130,130,130,130,130,130,130,
130,130,130,130,130,130,130,130,130,130,130,130,130,130,130,130,130,130,130,130,130,130,130,130,130,130,130,130,130,130,130,130,130,130,130,130,130,130,130,130,
130,130,130,130,130,130,130,130,130,130,130,130,130,130,130,94,94,94,94,94,130,130,94,94,94,94,94,130,130,130,130,130,94,94,94,94,94,94,94,130
</data>
 </layer>
 <layer id="2" name="background2" width="40" height="30">
  <data encoding="csv">
80,81,81,81,81,81,81,81,81,81,81,81,81,81,81,81,81,81,81,81,81,81,81,81,81,81,81,81,81,81,81,81,81,81,81,81,81,81,81,81,
97,98,98,78,79,98,98,98,98,98,98,98,98,98,98,78,79,98,98,98,98,98,98,98,98,78,79,98,98,98,98,98,78,79,98,98,98,98,98,99,
97,98,98,95,96,98,98,98,98,98,98,98,98,98,98,95,96,98,98,98,98,98,98,98,98,95,96,98,98,98,98,98,95,96,98,98,115,115,115,116,
97,98,98,98,98,98,98,98,98,98,78,79,98,98,98,98,98,98,98,98,78,79,98,98,98,98,98,98,98,115,115,115,115,115,115,116,0,1,2,0,
97,98,98,98,98,78,79,98,98,98,95,96,98,98,98,98,98,98,98,98,95,96,98,98,98,115,115,115,116,1,2,0,1,2,0,0,0,0,19,0,
97,98,98,98,98,95,96,98,98,98,98,98,98,98,98,98,98,98,98,98,98,98,98,98,99,0,0,0,0,0,19,0,0,19,0,0,0,0,0,0,
97,98,98,98,98,98,98,98,98,98,98,98,98,98,98,98,98,98,98,98,98,98,98,98,99,0,0,0,0,0,0,0,0,19,0,0,0,0,0,0,
97,98,98,98,98,98,98,98,78,79,98,98,98,98,78,79,98,98,98,78,79,98,98,98,99,0,0,0,0,0,0,0,0,0,0,0,0,0,0,0,
97,98,98,98,98,98,98,98,95,96,98,98,98,98,95,96,98,98,98,95,96,98,98,98,99,0,0,0,0,0,0,0,0,0,0,0,0,0,0,0,
97,98,98,98,98,98,98,98,98,98,98,98,98,98,98,98,98,98,98,98,98,98,98,98,99,0,0,0,0,0,0,0,0,0,0,0,0,0,0,0,
114,115,115,115,115,115,115,115,115,115,115,115,115,115,98,98,98,98,98,98,98,98,98,98,99,0,0,0,0,0,0,0,0,32,49,50,51,49,50,0,
0,0,0,0,0,0,19,19,0,0,0,0,0,0,114,115,115,115,115,115,115,115,115,115,116,0,0,0,0,0,0,0,0,0,0,0,0,0,0,0,
0,0,0,0,0,0,19,0,0,0,0,0,18,0,0,0,0,0,0,0,0,0,19,0,19,0,0,0,0,0,0,0,31,0,0,0,0,0,0,0,
0,0,0,0,0,0,19,0,0,0,0,0,0,0,0,0,0,18,0,0,0,0,19,18,0,0,0,0,0,0,0,0,31,0,0,80,81,81,81,81,
0,0,0,0,0,0,0,0,0,0,0,0,0,0,0,0,0,0,0,0,0,0,0,0,0,0,0,0,0,0,0,0,31,0,0,97,98,98,98,98,
0,0,0,0,0,0,0,0,0,0,0,0,0,0,0,0,0,0,0,0,0,0,0,0,0,0,0,0,0,0,0,0,31,0,0,114,115,115,115,115,
0,0,0,0,0,0,0,0,0,0,0,0,0,0,0,0,0,0,0,0,0,0,0,0,0,0,0,0,0,0,0,0,31,0,0,4,5,6,7,0,
0,0,0,0,0,0,0,0,0,0,0,0,0,0,0,0,0,0,0,0,0,0,0,0,0,0,0,0,0,0,0,0,31,0,20,21,22,23,0,0,
0,0,0,0,0,0,0,0,0,0,0,0,0,0,0,0,0,0,0,0,0,0,0,0,0,0,0,0,0,0,0,0,31,0,37,38,39,0,0,0,
0,0,0,0,0,3,0,0,0,0,0,0,3,4,5,6,7,0,0,0,0,0,0,0,0,0,0,0,0,0,0,0,31,0,0,55,56,57,0,0,
0,0,0,0,0,20,5,6,7,0,0,0,20,21,22,23,24,0,0,0,0,0,0,0,0,0,0,0,0,0,0,0,31,0,0,72,73,0,0,0,
0,0,0,0,3,4,5,6,0,0,0,0,37,38,39,40,1,2,0,0,1,2,0,0,0,0,0,0,0,0,0,0,31,0,0,89,90,0,0,0,
0,0,0,0,20,21,22,23,0,0,0,0,54,55,56,57,58,19,0,0,1,2,0,0,0,0,0,0,0,0,0,0,31,0,0,106,107,0,0,0,
0,0,0,0,37,38,39,40,0,0,0,0,71,72,73,74,75,19,0,0,0,0,0,0,0,0,0,0,0,0,0,0,31,0,122,123,124,0,0,0,
0,0,0,0,54,55,56,57,0,0,0,0,0,89,0,3,4,5,6,7,0,2,0,0,0,0,0,0,0,0,0,0,0,0,0,0,0,0,0,0,
0,0,0,0,71,72,73,74,0,0,0,0,0,89,2,20,21,22,23,24,1,0,3,4,5,6,7,0,0,0,0,0,0,0,0,0,0,0,0,0,
0,0,0,0,88,89,90,91,0,0,0,0,88,89,90,37,38,39,40,41,0,0,20,21,22,23,24,0,0,0,0,0,3,4,5,6,7,88,89,90,
0,0,0,0,105,106,107,108,0,0,0,0,105,106,107,54,55,56,57,58,0,1,37,38,39,40,41,0,0,0,0,0,20,21,22,88,89,90,106,107,
0,0,0,0,122,123,124,125,0,0,0,0,122,123,124,71,72,73,74,75,0,19,54,55,56,57,58,0,0,0,0,0,37,38,39,105,106,107,123,124,
0,0,0,0,0,94,94,0,0,0,0,0,94,94,94,88,89,90,91,92,94,94,71,72,73,74,75,94,94,94,94,94,54,55,56,122,123,124,94,94
</data>
 </layer>
 <layer id="3" name="platform" width="40" height="30">
  <data encoding="csv">
0,0,0,0,0,0,0,0,0,0,0,0,0,0,0,0,0,0,0,0,0,0,0,0,0,0,0,0,0,0,0,0,0,0,0,0,0,0,0,0,
0,0,0,0,0,0,0,0,0,0,0,0,0,0,0,0,0,0,0,0,0,0,0,0,0,0,0,0,0,0,0,0,0,0,0,0,0,0,0,0,
0,0,0,0,0,0,0,0,0,0,0,0,0,0,0,0,0,0,0,0,0,0,0,0,0,0,0,0,0,0,0,0,0,0,0,0,0,0,0,0,
0,0,0,0,0,0,0,0,0,0,0,0,0,0,0,0,0,0,0,0,0,0,0,0,0,0,0,0,0,1,2,0,2,1,0,0,0,0,0,0,
0,0,0,0,0,0,0,0,0,0,0,0,0,0,0,0,0,0,0,0,0,0,0,0,0,0,1,2,0,0,0,0,19,0,0,0,0,0,0,0,
0,0,0,0,0,0,0,0,0,0,0,0,0,0,0,0,0,0,0,0,0,0,0,0,0,0,0,19,0,0,0,0,0,0,0,0,0,0,0,0,
0,0,0,0,0,0,0,0,0,0,0,0,0,0,0,0,0,0,0,0,0,0,0,0,0,0,0,19,0,0,0,0,0,0,0,0,0,0,0,0,
0,0,0,0,0,0,0,0,0,0,0,0,0,0,0,0,0,0,0,0,0,0,0,0,0,0,0,19,0,0,0,0,0,0,0,0,0,0,0,0,
0,0,0,0,0,0,0,0,0,0,0,0,0,0,0,0,0,0,0,0,0,0,0,1,19,0,0,0,0,0,0,182,0,0,0,177,0,0,0,0,
0,0,0,0,0,0,0,0,0,0,0,0,0,0,0,0,0,0,0,0,0,0,0,1,2,0,0,0,0,0,0,0,0,0,0,0,0,0,0,0,
0,0,1,2,0,0,0,19,1,2,0,1,2,0,0,0,0,0,0,0,19,0,0,0,2,0,0,0,0,0,0,0,0,33,0,177,0,0,0,0,
0,0,0,19,0,0,0,0,0,19,0,0,19,0,0,2,0,1,2,0,19,1,2,0,2,0,0,0,0,0,0,144,144,144,9,9,9,9,9,10,
0,0,0,0,0,0,0,0,0,19,0,0,19,0,0,19,0,19,19,0,0,0,0,0,0,0,0,0,0,0,0,0,93,0,0,0,100,101,117,118,
0,0,0,0,0,0,0,0,0,0,0,0,19,0,0,0,0,0,19,0,0,0,0,0,0,0,0,0,0,0,0,0,93,0,0,0,0,0,0,0,
0,0,0,0,0,0,0,0,0,0,0,0,0,0,0,0,0,0,19,0,0,0,0,0,0,0,0,0,0,0,0,0,93,0,0,0,0,0,0,0,
0,0,0,0,0,0,0,0,0,0,0,0,0,0,0,0,0,0,0,0,0,0,0,0,0,0,0,0,0,0,0,0,93,0,0,0,0,0,0,0,
0,0,0,0,0,0,0,0,0,0,0,0,0,0,0,0,0,0,0,0,0,0,0,0,0,0,0,0,0,0,0,0,93,0,0,0,2,2,1,2,
0,0,0,0,0,0,0,0,0,0,0,0,0,0,0,0,0,0,0,0,0,0,0,0,0,0,0,0,0,0,0,0,93,0,0,0,0,0,18,19,
0,0,0,0,0,0,0,0,0,0,0,0,0,0,0,0,0,0,0,0,8,9,9,10,0,0,0,0,0,0,0,0,93,0,0,0,0,0,0,0,
0,0,0,0,0,0,0,0,0,0,0,0,0,0,0,0,0,0,0,0,0,0,1,2,0,0,0,0,0,0,0,0,93,0,0,0,0,0,0,0,
0,0,0,0,0,0,2,0,0,0,0,0,0,2,8,9,9,10,0,0,0,0,18,19,0,0,8,9,9,10,0,0,93,0,0,0,0,0,0,0,
0,0,0,0,0,0,0,11,12,12,12,13,0,0,0,0,0,0,0,3,4,5,6,7,0,0,0,3,4,5,6,0,93,0,0,0,0,0,0,0,
32,0,0,0,0,0,0,28,29,29,29,30,0,0,2,0,0,0,0,20,21,22,23,24,0,0,0,20,21,22,23,24,93,0,0,0,0,0,0,0,
11,12,12,12,13,0,0,28,29,29,29,30,0,0,0,0,0,0,0,37,38,39,40,41,0,0,0,37,38,39,40,41,110,119,102,0,0,83,119,0,
28,29,29,29,30,0,0,28,29,29,29,30,0,0,0,0,0,19,0,54,55,56,57,58,0,0,0,54,55,56,57,11,12,12,12,12,12,12,12,13,
28,29,29,29,30,0,0,28,29,29,29,30,0,0,0,0,1,19,2,71,72,73,74,75,0,0,0,71,72,73,74,75,0,0,23,0,6,7,56,0,
28,29,29,29,30,0,2,28,29,29,29,30,0,0,0,0,0,0,0,88,89,90,91,92,0,0,0,88,89,90,91,92,0,0,1,0,38,0,0,7,
28,29,29,29,30,0,0,28,29,29,29,30,0,0,0,0,0,0,0,105,106,107,108,109,0,0,0,105,106,107,108,109,0,0,0,0,0,2,0,0,
28,29,29,29,30,0,0,28,29,29,29,30,0,0,0,0,0,19,0,122,123,124,125,126,0,0,0,122,123,124,125,126,0,0,0,0,0,0,0,0,
28,29,29,29,30,0,0,28,29,29,29,30,0,0,0,0,0,0,0,0,0,0,0,0,0,0,0,0,0,0,0,0,0,0,0,0,0,0,0,0
</data>
 </layer>
 <layer id="5" name="ObjectLayer" width="40" height="30">
  <data encoding="csv">
0,0,0,0,0,0,0,0,0,0,0,0,0,0,0,0,0,0,0,0,0,0,0,0,0,0,0,0,0,0,0,0,0,0,0,0,0,0,0,0,
0,0,0,0,0,0,0,0,0,0,0,0,0,0,0,0,0,0,0,0,0,0,0,0,0,0,0,0,0,0,0,0,0,0,0,0,0,0,0,0,
0,0,0,0,0,0,0,0,0,0,0,0,0,0,0,0,0,0,0,0,0,0,0,0,0,0,0,0,0,0,0,0,0,0,0,0,0,1,2,0,
0,0,0,0,0,0,0,0,0,0,0,0,0,0,0,0,0,0,0,0,0,0,0,0,0,0,0,0,0,0,0,0,0,0,0,0,0,19,19,0,
0,0,0,0,0,0,0,0,0,0,0,0,0,0,0,0,0,0,0,0,0,0,0,0,0,2,0,0,0,19,19,0,0,0,0,0,0,0,0,0,
0,0,0,0,0,0,0,0,0,0,0,0,0,0,0,0,0,0,0,0,0,0,0,0,1,2,0,0,0,0,0,0,0,0,0,0,0,0,0,0,
0,0,0,0,0,0,0,0,0,0,0,0,0,0,0,0,0,0,0,0,0,0,0,0,0,0,0,0,0,0,0,0,0,0,0,0,0,0,0,0,
0,0,0,0,0,0,0,0,0,0,0,0,0,0,0,0,0,0,0,0,0,0,0,0,0,0,0,0,0,0,0,0,0,0,0,0,0,0,0,0,
0,0,0,0,0,0,0,0,0,0,0,0,0,0,0,0,0,0,0,0,0,0,0,0,0,0,0,0,0,0,0,0,0,0,0,0,0,0,0,0,
0,0,0,0,0,0,0,0,0,0,0,0,0,0,0,0,0,0,0,0,0,0,0,0,0,0,0,0,0,0,0,0,0,0,0,0,0,0,0,0,
0,0,0,0,0,0,0,0,0,0,0,0,0,0,0,0,0,0,0,0,0,0,0,0,0,0,0,0,0,0,0,0,0,0,0,0,0,0,0,0,
0,0,0,0,0,0,0,0,0,0,0,0,0,0,0,0,0,0,0,0,0,0,0,0,0,0,0,0,0,0,0,0,76,0,0,0,0,0,0,0,
0,0,0,0,0,0,0,0,0,0,0,0,0,0,0,0,0,0,0,0,0,0,0,0,0,0,0,0,0,0,0,0,0,0,0,0,0,0,0,0,
0,0,0,0,0,0,0,0,0,0,0,0,0,0,0,0,0,0,0,0,0,0,0,0,0,0,0,0,0,0,0,0,0,0,0,0,0,0,0,0,
0,0,0,0,0,0,0,0,0,0,0,0,0,0,0,0,0,0,0,0,0,0,0,0,0,0,0,0,0,0,0,0,0,0,0,1,2,1,2,0,
0,0,0,0,0,0,0,0,0,0,0,0,0,0,0,0,0,0,0,0,0,0,0,0,0,0,0,0,0,0,0,0,0,0,0,0,19,19,19,0,
0,0,0,0,0,0,0,0,0,0,0,0,0,0,0,0,0,0,0,0,0,0,0,0,0,0,0,0,0,0,0,0,0,0,0,0,19,19,0,0,
0,0,0,0,0,0,0,0,0,0,0,0,0,0,0,0,0,0,0,0,0,0,0,0,0,0,0,0,0,0,0,0,0,0,0,0,19,0,0,0,
0,0,0,0,0,0,0,0,0,0,0,0,0,0,0,0,0,0,0,0,0,0,0,0,0,0,0,0,0,0,0,0,0,0,0,0,0,0,0,0,
0,0,0,0,0,0,0,0,0,0,0,0,0,0,0,0,0,0,0,0,0,0,0,0,0,0,0,0,0,0,0,0,0,0,0,0,19,0,0,0,
0,0,0,0,0,0,0,0,0,0,0,0,0,0,0,0,0,0,0,0,0,0,0,0,0,0,0,0,0,0,0,0,0,0,0,0,19,0,0,0,
0,0,0,0,0,0,0,0,0,0,0,0,0,0,0,0,0,0,0,0,0,0,0,0,0,0,0,0,0,0,0,0,0,0,0,0,19,0,0,0,
0,0,0,0,0,0,0,0,0,0,0,0,0,0,0,0,0,0,0,0,0,0,0,0,0,0,0,0,0,0,0,0,0,0,0,0,0,0,0,0,
0,0,0,0,0,0,0,0,0,0,0,0,0,0,0,0,0,0,0,0,0,0,0,0,0,0,0,0,0,0,0,0,0,0,0,0,19,0,0,0,
0,0,0,0,0,0,0,0,0,0,0,0,0,0,0,0,0,0,0,0,0,0,0,0,0,0,0,0,0,0,0,0,0,0,0,0,0,0,0,0,
0,0,0,0,0,0,0,0,0,0,0,0,0,0,0,0,0,0,0,0,0,0,0,0,0,0,0,0,0,0,0,0,0,0,0,0,0,0,0,0,
0,0,0,0,0,0,0,0,0,0,0,0,0,0,0,0,0,0,0,0,0,0,0,0,0,0,0,0,0,0,0,0,0,0,0,0,0,0,0,0,
0,0,0,0,0,0,0,0,0,0,0,0,0,0,0,0,0,0,0,0,0,0,0,0,0,0,0,0,0,0,0,0,0,0,0,0,0,0,0,0,
0,0,0,0,0,0,0,0,0,0,0,0,0,0,0,0,0,0,0,0,0,0,0,0,0,0,0,0,0,0,0,0,0,0,0,0,0,0,0,0,
0,0,0,0,0,0,0,0,0,0,0,0,0,0,0,0,0,0,0,0,0,0,0,0,0,0,0,0,0,0,0,0,0,0,0,0,0,0,0,0
</data>
 </layer>
</map>
